X:1526
T:Paddy Murphy's Wife
R:reel
N:"collected from J. O'Neill"
B:"O'Neill's Dance Music of Ireland, 1526"
T: bean .paidin ui mur.ca.da.
Z:transcribed by John B. Walsh, walsh@math.ubc.ca 8/23/96
M:C|
L:1/8
K:D
G|((3FED) (AF) BGAF|EG=cG ECCE|((3FED) (AF) BGAF|Dddc dD D:|
g|fada fdaf|eg=cg ecgc|fada fdad|((3Bcd) AG FDDg|
fada fdad|eg=cg ecgc|afge fdec|dABG FD D||


